!!!ONB: MCCC : IWM0417_01 : Extracted Monophonic Melody
!!!COM: Mozart, Wolfgang Amadeus
!!!OPR: Piano Sonata No.17
!!!OMV: 1
!!!SCT: K.570
!!!ODT: 1789///
**kern
*thru
*staff1
*>A
*clefG2
*k[b-e-]
*B-:
*M3/4
*MM152
=1
2b-
4f
=2
2d
4f
=3
2b-
4dd
=4
2ff
8bb-
8dd
=5
8ff
8ee-
8dd
8cc
8b-
8a
=6
8g
8f
8e
8f
8g
8a
=7
8b-
16b-
16a
8b-
8cc
8dd
8ee-
=8
8ee
8ff
8gg
8ff
8bb-
8dd
=9
8ff
8ee-
8dd
8cc
8b-
8a
=10
8g
8f
8e
8f
8g
8a
=11
8b-
8r
8b-
8r
8dd
8r
=12
4b-
8.r
16b-
16cc
16b-
16a
16b-
=13
4gg
8.r
16b-
16cc
16b-
16a
16b-
=14
4ff
8.r
16b-
16cc
16b-
16a
16b-
=15
4cc
4ff
4ee-
=16
4cc#
8dd
16r
16b-
16cc
16b-
16a
16b-
=17
4gg
8.r
16b-
16cc
16b-
16a
16b-
=18
4ff
8.r
16b-
16cc
16b-
16a
16b-
=19
4cc
4ee-
4a
=20
4b-
4r
4r
=21
4gg
4g
4r
=22
4dd
4d
4r
=23
2e-
16f
16e-
16d
16e-
=24
8cc
8b-
4b-
4b-
=25
8b-
8ee-
8dd
8dd-
8cc
8cc-
=26
4b-
4r
4r
=27
2e-
16f
16e-
16d
16e-
=28
8cc
8b
4b
4b
=29
8cc
8gg
8ee-
8dd
8cc
8b-
=30
4a
4r
4r
=31
8b-
8ddd
8bb-
8aa
8gg
8ff
=32
4ee
4r
4r
=33
8ff
8aa
8ff
8ee
8dd
8cc
=34
4b
4r
4r
=35
16r
16cc
16b
16cc
16dd
16cc
16b
16cc
16r
16cc
16ee
16cc
=36
16r
16cc
16ff
16cc
16r
16cc
16bb-
16cc
16r
16cc
16aa
16cc
=37
16gg
16ee
16dd
16cc
16b
16cc
16dd
16cc
16r
16cc
16ee
16cc
=38
16r
16cc
16ff
16cc
16r
16cc
16bb-
16cc
16r
16cc
16aa
16cc
=39
16gg
16ccc
16gg
16ee
16cc
16gg
16ee
16cc
16g
16cc
16g
16e
=40
4c
4cc
4r
=41
2.r
=42
2.r
=43
8r
8ccc
8ccc
8ccc
8ccc
8ccc
=44
8ddd
8ccc
8bb-
8aa
8gg
8ff
=45
8ff
8ee
4ee
4r
=46
2.r
=47
8r
8bb-
8bb-
8bb-
8bb-
8bb-
=48
8ccc
8bb-
8aa
8gg
8ff
8ee
=49
4ff
8r
8aa
8gg
8ff
=50
4ee
8r
8ddd
8ccc
8ee
=51
4ff
8r
8aa
8gg
8ff
=52
4ee
8r
8ddd
8ccc
8ee
=53
4ff
8r
8ccc
8aa
8gg
=54
4ff#
8r
8eee-
8ddd
8ff#
=55
8aa
8gg
8ccc
8bb
8bb-
8aa
=56
8.gg
16aa
4ff
8.ee
32dd
32ee
=57
16ff
16cc
16b
16cc
16dd
16cc
16b
16cc
16b-
16cc
16a
16cc
=58
16g
16cc
16b
16cc
16dd
16cc
16b
16cc
16bb-
16cc
16bb-
16cc
=59
16aa
16cc
16b
16cc
16dd
16cc
16b
16cc
16b-
16cc
16a
16cc
=60
16g
16cc
16b
16cc
16dd
16cc
16b
16cc
16bb-
16cc
16bb-
16cc
=61
16aa
16cc
16b
16cc
16dd
16cc
16b
16cc
16ee-
16cc
16b-
16cc
=62
16a
16dd
16cc#
16dd
16ee
16dd
16cc#
16dd
16ccc
16dd
16ccc
16dd
=63
4bb
4bb-
4aa
=64
16gg
16ddd
16bb-
16gg
16ff
16ccc
16aa
16ff
16ee
16bb-
16gg
16ee
=65
16ff
16aa
16ccc
16bb-
16aa
16gg
16ff
16ee
16dd
16cc
16b-
16a
=66
16g
16b-
16dd
16cc
16b-
16a
16g
16f
16e
16d
16c
16B
=67
8c
8cc
8ff
8aa
8ccc
8fff
=68
2.gg
=69
4ff
4r
4r
=70
4bb-
4ccc
4ddd
=71
4.ccc
16ddd
16ccc
16bb-
16aa
16gg
16ff
=72
4.aa
8bb-
4gg
=73
4ff
4r
4r
=74
8b-
8bb-
8cc
8ccc
8dd
8ddd
=75
8ccc
16ddd
16eee
16fff
16eee
16ddd
16ccc
16bb-
16aa
16gg
16ff
=76
4.aa
8bb-
4gg
=77
4ff
16r
16ccc
16ddd
16ccc
16bb-
16aa
16bb-
16gg
=78
4ff
16r
16cc
16dd
16cc
16b-
16a
16b-
16g
=79
4f
4ff
4r
=80
*>A
*M3/4
2b-
4f
=81
2d
4f
=82
2b-
4dd
=83
2ff
8bb-
8dd
=84
8ff
8ee-
8dd
8cc
8b-
8a
=85
8g
8f
8e
8f
8g
8a
=86
8b-
16b-
16a
8b-
8cc
8dd
8ee-
=87
8ee
8ff
8gg
8ff
8bb-
8dd
=88
8ff
8ee-
8dd
8cc
8b-
8a
=89
8g
8f
8e
8f
8g
8a
=90
8b-
8r
8b-
8r
8dd
8r
=91
4b-
8.r
16b-
16cc
16b-
16a
16b-
=92
4gg
8.r
16b-
16cc
16b-
16a
16b-
=93
4ff
8.r
16b-
16cc
16b-
16a
16b-
=94
4cc
4ff
4ee-
=95
4cc#
8dd
16r
16b-
16cc
16b-
16a
16b-
=96
4gg
8.r
16b-
16cc
16b-
16a
16b-
=97
4ff
8.r
16b-
16cc
16b-
16a
16b-
=98
4cc
4ee-
4a
=99
4b-
4r
4r
=100
4gg
4g
4r
=101
4dd
4d
4r
=102
2e-
16f
16e-
16d
16e-
=103
8cc
8b-
4b-
4b-
=104
8b-
8ee-
8dd
8dd-
8cc
8cc-
=105
4b-
4r
4r
=106
2e-
16f
16e-
16d
16e-
=107
8cc
8b
4b
4b
=108
8cc
8gg
8ee-
8dd
8cc
8b-
=109
4a
4r
4r
=110
8b-
8ddd
8bb-
8aa
8gg
8ff
=111
4ee
4r
4r
=112
8ff
8aa
8ff
8ee
8dd
8cc
=113
4b
4r
4r
=114
16r
16cc
16b
16cc
16dd
16cc
16b
16cc
16r
16cc
16ee
16cc
=115
16r
16cc
16ff
16cc
16r
16cc
16bb-
16cc
16r
16cc
16aa
16cc
=116
16gg
16ee
16dd
16cc
16b
16cc
16dd
16cc
16r
16cc
16ee
16cc
=117
16r
16cc
16ff
16cc
16r
16cc
16bb-
16cc
16r
16cc
16aa
16cc
=118
16gg
16ccc
16gg
16ee
16cc
16gg
16ee
16cc
16g
16cc
16g
16e
=119
4c
4cc
4r
=120
2.r
=121
2.r
=122
8r
8ccc
8ccc
8ccc
8ccc
8ccc
=123
8ddd
8ccc
8bb-
8aa
8gg
8ff
=124
8ff
8ee
4ee
4r
=125
2.r
=126
8r
8bb-
8bb-
8bb-
8bb-
8bb-
=127
8ccc
8bb-
8aa
8gg
8ff
8ee
=128
4ff
8r
8aa
8gg
8ff
=129
4ee
8r
8ddd
8ccc
8ee
=130
4ff
8r
8aa
8gg
8ff
=131
4ee
8r
8ddd
8ccc
8ee
=132
4ff
8r
8ccc
8aa
8gg
=133
4ff#
8r
8eee-
8ddd
8ff#
=134
8aa
8gg
8ccc
8bb
8bb-
8aa
=135
8.gg
16aa
4ff
8.ee
32dd
32ee
=136
16ff
16cc
16b
16cc
16dd
16cc
16b
16cc
16b-
16cc
16a
16cc
=137
16g
16cc
16b
16cc
16dd
16cc
16b
16cc
16bb-
16cc
16bb-
16cc
=138
16aa
16cc
16b
16cc
16dd
16cc
16b
16cc
16b-
16cc
16a
16cc
=139
16g
16cc
16b
16cc
16dd
16cc
16b
16cc
16bb-
16cc
16bb-
16cc
=140
16aa
16cc
16b
16cc
16dd
16cc
16b
16cc
16ee-
16cc
16b-
16cc
=141
16a
16dd
16cc#
16dd
16ee
16dd
16cc#
16dd
16ccc
16dd
16ccc
16dd
=142
4bb
4bb-
4aa
=143
16gg
16ddd
16bb-
16gg
16ff
16ccc
16aa
16ff
16ee
16bb-
16gg
16ee
=144
16ff
16aa
16ccc
16bb-
16aa
16gg
16ff
16ee
16dd
16cc
16b-
16a
=145
16g
16b-
16dd
16cc
16b-
16a
16g
16f
16e
16d
16c
16B
=146
8c
8cc
8ff
8aa
8ccc
8fff
=147
2.gg
=148
4ff
4r
4r
=149
4bb-
4ccc
4ddd
=150
4.ccc
16ddd
16ccc
16bb-
16aa
16gg
16ff
=151
4.aa
8bb-
4gg
=152
4ff
4r
4r
=153
8b-
8bb-
8cc
8ccc
8dd
8ddd
=154
8ccc
16ddd
16eee
16fff
16eee
16ddd
16ccc
16bb-
16aa
16gg
16ff
=155
4.aa
8bb-
4gg
=156
4ff
16r
16ccc
16ddd
16ccc
16bb-
16aa
16bb-
16gg
=157
4ff
16r
16cc
16dd
16cc
16b-
16a
16b-
16g
=158
4f
4ff
4r
=159
*>B
4g-
4gg-
4r
=160
2d-
16e-
16d-
16c
16d-
=161
8b-
8a-
4a-
4a-
=162
8a-
8dd-
8cc
8cc-
8b-
8b--
=163
4a-
4r
4r
=164
2d-
16e-
16d-
16c
16d-
=165
8b-
8a
4a
4a
=166
8b-
8ff
8dd-
8cc
8b-
8a-
=167
4g
4r
4r
=168
8a-
8aa-
8ff
8ee-
8dd
8cc
=169
4b
4r
4r
=170
8cc
8eee-
8ccc
8bb-
8aa-
8gg
=171
4ff#
4r
4r
=172
8gg
8bb-
8gg
8ff
8ee-
8dd
=173
4cc#
4r
4r
=174
16r
16dd
16cc#
16dd
16ee
16dd
16cc#
16dd
16r
16dd
16ff#
16dd
=175
16r
16dd
16gg
16dd
16r
16dd
16ccc
16dd
16r
16dd
16bb-
16dd
=176
16aa
16ff#
16ee
16dd
16cc#
16dd
16ee
16dd
16r
16dd
16ff#
16dd
=177
16r
16dd
16gg
16dd
16r
16dd
16ccc
16dd
16r
16dd
16bb-
16dd
=178
16aa
16ddd
16aa
16ff#
16dd
16aa
16ff#
16dd
16a
16dd
16a
16f#
=179
4d
4dd
4r
=180
2.r
=181
2.r
=182
8r
8ddd
8ddd
8ddd
8ddd
8ddd
=183
8eee-
8ddd
8ccc
8bb
8aa-
8gg
=184
8gg
8ff
4ff
4r
=185
2.r
=186
8r
8ff
8ff
8ff
8ff
8ff
=187
8gg
8ff
8ee-
8dd
8cc
8b
=188
2cc
4g
=189
2e-
4g
=190
2cc
4ee-
=191
4gg
4r
4r
=192
2ee
4cc
=193
2g
4cc
=194
2ee
4gg
=195
4bb-
4r
4r
=196
8r
8aa-
8aa-
8aa-
8aa-
8aa-
=197
8bb-
8aa-
8gg
8ff
8ee-
8dd
=198
8r
8gg
8gg
8gg
8gg
8gg
=199
8aa-
8gg
8ff
8ee-
8dd
8cc
=200
8r
8ff
8ff
8ff
8ff
8ff
=201
8gg
8ff
8ee-
8dd
8cc
8b
=202
8ff
8ee-
8dd
8cc
8b-
8a
=203
8ccc
8bb-
8aa
8gg
8ff
8ee
=204
4ff
4r
4ee-
=205
4dd-
4r
4bb-
=206
4aa
4r
4a
=207
4b-
4r
4d-
=208
8c
8f
8f
8f
8f
8f
=209
8e
8f
8g
8f
8b-
8a
=210
8dd
8cc
8ee-
8dd
8gg
8ff
=211
4.ff
8ee
8ee-
8cc
=212
2b-
4f
=213
2d
4f
=214
2b-
4dd
=215
2ff
8bb-
8dd
=216
8ff
8ee-
8dd
8cc
8b-
8a
=217
8g
8f
8e
8f
8g
8a
=218
8b-
16b-
16a
8b-
8cc
8dd
8ee-
=219
8ee
8ff
8gg
8ff
8bb-
8dd
=220
8ff
8ee-
8dd
8cc
8b-
8a
=221
8g
8f
8e
8f
8g
8a
=222
8b-
8r
8b-
8r
8dd
8r
=223
4b-
8.r
16b-
16cc
16b-
16a
16b-
=224
4gg
8.r
16b-
16cc
16b-
16a
16b-
=225
4ff
8.r
16b-
16cc
16b-
16a
16b-
=226
4cc
4ff
4ee-
=227
4cc#
8dd
16r
16b-
16cc
16b-
16a
16b-
=228
4gg
8.r
16b-
16cc
16b-
16a
16b-
=229
4ff
8.r
16b-
16cc
16b-
16a
16b-
=230
4cc
4ee-
4a
=231
4b-
4r
4r
=232
4gg
4g
4r
=233
4dd
4d
4r
=234
2e-
16f
16e-
16d
16e-
=235
8cc
8b-
4b-
4b-
=236
8b-
8ee-
8dd
8dd-
8cc
8cc-
=237
4b-
4r
4r
=238
2e-
16f
16e-
16d
16e-
=239
8cc
8b
4b
4b
=240
8cc
8gg
8ee-
8dd
8cc
8b-
=241
4a
4r
4r
=242
8b-
8ddd
8bb-
8aa
8gg
8ff
=243
4ee
4r
4r
=244
16r
16ff
16ee
16ff
16gg
16ff
16ee
16ff
16r
16ff
16aa
16ff
=245
16r
16ff
16bb-
16ff
16r
16ff
16eee-
16ff
16r
16ff
16ddd
16ff
=246
16ccc
16aa
16gg
16ff
16ee
16ff
16gg
16ff
16r
16ff
16aa
16ff
=247
16r
16ff
16bb-
16ff
16r
16ff
16eee-
16ff
16r
16ff
16ddd
16ff
=248
16ccc
16fff
16ccc
16aa
16ff
16ccc
16aa
16ff
16cc
16ff
16cc
16a
=249
4f
4ff
4r
=250
2.r
=251
2.r
=252
8r
8ff
8ff
8ff
8ff
8ff
=253
8gg
8ff
8ee-
8dd
8cc
8b-
=254
8b-
8a
4a
4r
=255
2.r
=256
8r
8ee-
8ee-
8ee-
8ee-
8ee-
=257
8ff
8ee-
8dd
8cc
8b-
8a
=258
4b-
8r
8dd
8cc
8b-
=259
4a
8r
8gg
8ff
8a
=260
4b-
8r
8dd
8cc
8b-
=261
4a
8r
8gg-
8ff
8a
=262
4b-
8r
8ff
8dd-
8cc
=263
4b
8r
8aa-
8gg
8b
=264
8dd
8cc
8ff
8ee
8ee-
8dd
=265
8.cc
16dd
4b-
8.a
32g
32a
=266
16b-
16f
16e
16f
16g
16f
16e
16f
16e-
16f
16d
16f
=267
16c
16f
16e
16f
16g
16f
16e
16f
16ee-
16f
16ee-
16f
=268
16dd
16ff
16ee
16ff
16gg
16ff
16ee
16ff
16ee-
16ff
16dd
16ff
=269
16cc
16ff
16ee
16ff
16gg
16ff
16ee
16ff
16eee-
16ff
16eee-
16ff
=270
16ddd
16ff
16ee
16ff
16gg
16ff
16ee
16ff
16aa-
16ff
16ee-
16ff
=271
16dd
16gg
16ff#
16gg
16aa
16gg
16ff#
16gg
16fff
16gg
16fff
16gg
=272
4eee
4eee-
4ddd
=273
16ddd
16ccc
16eee-
16ccc
16ccc
16bb-
16ddd
16bb-
16bb-
16aa
16ccc
16aa
=274
16bb-
16ddd
16fff
16eee-
16ddd
16ccc
16bb-
16aa
16gg
16ff
16ee-
16dd
=275
16cc
16ee-
16gg
16ff
16ee-
16dd
16cc
16b-
16a
16g
16f
16e
=276
8f
8b-
8dd
8ff
8bb-
8ddd
=277
2.cc
=278
4b-
4r
4r
=279
4ee-
4ff
4gg
=280
4.ff
16gg
16ff
16ee-
16dd
16cc
16b-
=281
4.dd
8ee-
4cc
=282
4b-
4r
4r
=283
8e-
8ee-
8f
8ff
8g
8gg
=284
8ff
16gg
16aa
16bb-
16aa
16gg
16ff
16ee-
16dd
16cc
16b-
=285
4.dd
8ee-
4cc
=286
4b-
16r
16ff
16gg
16ff
16ee-
16dd
16ee-
16cc
=287
4b-
16r
16f
16g
16f
16e-
16d
16e-
16c
=288
4B-
4bb-
4r
=289
*>B
4g-
4gg-
4r
=290
2d-
16e-
16d-
16c
16d-
=291
8b-
8a-
4a-
4a-
=292
8a-
8dd-
8cc
8cc-
8b-
8b--
=293
4a-
4r
4r
=294
2d-
16e-
16d-
16c
16d-
=295
8b-
8a
4a
4a
=296
8b-
8ff
8dd-
8cc
8b-
8a-
=297
4g
4r
4r
=298
8a-
8aa-
8ff
8ee-
8dd
8cc
=299
4b
4r
4r
=300
8cc
8eee-
8ccc
8bb-
8aa-
8gg
=301
4ff#
4r
4r
=302
8gg
8bb-
8gg
8ff
8ee-
8dd
=303
4cc#
4r
4r
=304
16r
16dd
16cc#
16dd
16ee
16dd
16cc#
16dd
16r
16dd
16ff#
16dd
=305
16r
16dd
16gg
16dd
16r
16dd
16ccc
16dd
16r
16dd
16bb-
16dd
=306
16aa
16ff#
16ee
16dd
16cc#
16dd
16ee
16dd
16r
16dd
16ff#
16dd
=307
16r
16dd
16gg
16dd
16r
16dd
16ccc
16dd
16r
16dd
16bb-
16dd
=308
16aa
16ddd
16aa
16ff#
16dd
16aa
16ff#
16dd
16a
16dd
16a
16f#
=309
4d
4dd
4r
=310
2.r
=311
2.r
=312
8r
8ddd
8ddd
8ddd
8ddd
8ddd
=313
8eee-
8ddd
8ccc
8bb
8aa-
8gg
=314
8gg
8ff
4ff
4r
=315
2.r
=316
8r
8ff
8ff
8ff
8ff
8ff
=317
8gg
8ff
8ee-
8dd
8cc
8b
=318
2cc
4g
=319
2e-
4g
=320
2cc
4ee-
=321
4gg
4r
4r
=322
2ee
4cc
=323
2g
4cc
=324
2ee
4gg
=325
4bb-
4r
4r
=326
8r
8aa-
8aa-
8aa-
8aa-
8aa-
=327
8bb-
8aa-
8gg
8ff
8ee-
8dd
=328
8r
8gg
8gg
8gg
8gg
8gg
=329
8aa-
8gg
8ff
8ee-
8dd
8cc
=330
8r
8ff
8ff
8ff
8ff
8ff
=331
8gg
8ff
8ee-
8dd
8cc
8b
=332
8ff
8ee-
8dd
8cc
8b-
8a
=333
8ccc
8bb-
8aa
8gg
8ff
8ee
=334
4ff
4r
4ee-
=335
4dd-
4r
4bb-
=336
4aa
4r
4a
=337
4b-
4r
4d-
=338
8c
8f
8f
8f
8f
8f
=339
8e
8f
8g
8f
8b-
8a
=340
8dd
8cc
8ee-
8dd
8gg
8ff
=341
4.ff
8ee
8ee-
8cc
=342
2b-
4f
=343
2d
4f
=344
2b-
4dd
=345
2ff
8bb-
8dd
=346
8ff
8ee-
8dd
8cc
8b-
8a
=347
8g
8f
8e
8f
8g
8a
=348
8b-
16b-
16a
8b-
8cc
8dd
8ee-
=349
8ee
8ff
8gg
8ff
8bb-
8dd
=350
8ff
8ee-
8dd
8cc
8b-
8a
=351
8g
8f
8e
8f
8g
8a
=352
8b-
8r
8b-
8r
8dd
8r
=353
4b-
8.r
16b-
16cc
16b-
16a
16b-
=354
4gg
8.r
16b-
16cc
16b-
16a
16b-
=355
4ff
8.r
16b-
16cc
16b-
16a
16b-
=356
4cc
4ff
4ee-
=357
4cc#
8dd
16r
16b-
16cc
16b-
16a
16b-
=358
4gg
8.r
16b-
16cc
16b-
16a
16b-
=359
4ff
8.r
16b-
16cc
16b-
16a
16b-
=360
4cc
4ee-
4a
=361
4b-
4r
4r
=362
4gg
4g
4r
=363
4dd
4d
4r
=364
2e-
16f
16e-
16d
16e-
=365
8cc
8b-
4b-
4b-
=366
8b-
8ee-
8dd
8dd-
8cc
8cc-
=367
4b-
4r
4r
=368
2e-
16f
16e-
16d
16e-
=369
8cc
8b
4b
4b
=370
8cc
8gg
8ee-
8dd
8cc
8b-
=371
4a
4r
4r
=372
8b-
8ddd
8bb-
8aa
8gg
8ff
=373
4ee
4r
4r
=374
16r
16ff
16ee
16ff
16gg
16ff
16ee
16ff
16r
16ff
16aa
16ff
=375
16r
16ff
16bb-
16ff
16r
16ff
16eee-
16ff
16r
16ff
16ddd
16ff
=376
16ccc
16aa
16gg
16ff
16ee
16ff
16gg
16ff
16r
16ff
16aa
16ff
=377
16r
16ff
16bb-
16ff
16r
16ff
16eee-
16ff
16r
16ff
16ddd
16ff
=378
16ccc
16fff
16ccc
16aa
16ff
16ccc
16aa
16ff
16cc
16ff
16cc
16a
=379
4f
4ff
4r
=380
2.r
=381
2.r
=382
8r
8ff
8ff
8ff
8ff
8ff
=383
8gg
8ff
8ee-
8dd
8cc
8b-
=384
8b-
8a
4a
4r
=385
2.r
=386
8r
8ee-
8ee-
8ee-
8ee-
8ee-
=387
8ff
8ee-
8dd
8cc
8b-
8a
=388
4b-
8r
8dd
8cc
8b-
=389
4a
8r
8gg
8ff
8a
=390
4b-
8r
8dd
8cc
8b-
=391
4a
8r
8gg-
8ff
8a
=392
4b-
8r
8ff
8dd-
8cc
=393
4b
8r
8aa-
8gg
8b
=394
8dd
8cc
8ff
8ee
8ee-
8dd
=395
8.cc
16dd
4b-
8.a
32g
32a
=396
16b-
16f
16e
16f
16g
16f
16e
16f
16e-
16f
16d
16f
=397
16c
16f
16e
16f
16g
16f
16e
16f
16ee-
16f
16ee-
16f
=398
16dd
16ff
16ee
16ff
16gg
16ff
16ee
16ff
16ee-
16ff
16dd
16ff
=399
16cc
16ff
16ee
16ff
16gg
16ff
16ee
16ff
16eee-
16ff
16eee-
16ff
=400
16ddd
16ff
16ee
16ff
16gg
16ff
16ee
16ff
16aa-
16ff
16ee-
16ff
=401
16dd
16gg
16ff#
16gg
16aa
16gg
16ff#
16gg
16fff
16gg
16fff
16gg
=402
4eee
4eee-
4ddd
=403
16ddd
16ccc
16eee-
16ccc
16ccc
16bb-
16ddd
16bb-
16bb-
16aa
16ccc
16aa
=404
16bb-
16ddd
16fff
16eee-
16ddd
16ccc
16bb-
16aa
16gg
16ff
16ee-
16dd
=405
16cc
16ee-
16gg
16ff
16ee-
16dd
16cc
16b-
16a
16g
16f
16e
=406
8f
8b-
8dd
8ff
8bb-
8ddd
=407
2.cc
=408
4b-
4r
4r
=409
4ee-
4ff
4gg
=410
4.ff
16gg
16ff
16ee-
16dd
16cc
16b-
=411
4.dd
8ee-
4cc
=412
4b-
4r
4r
=413
8e-
8ee-
8f
8ff
8g
8gg
=414
8ff
16gg
16aa
16bb-
16aa
16gg
16ff
16ee-
16dd
16cc
16b-
=415
4.dd
8ee-
4cc
=416
4b-
16r
16ff
16gg
16ff
16ee-
16dd
16ee-
16cc
=417
4b-
16r
16f
16g
16f
16e-
16d
16e-
16c
=418
4B-
4bb-
4r
==
*-
